public/avatar/hat/43.svg

<svg xmlns:xlink="http://www.w3.org/1999/xlink" height="92.9" width="100.7" xmlns="http://www.w3.org/2000/svg"><use height="33.25" transform="translate(18.15 40.4)" width="39.4" xlink:href="#a"/><defs><g id="a"><path d="m-15.3 14.6.75-4.05.95-3.05q.9-2.5 2.6-5.7l.2-.4.4-.75 1.05-1.75 1.25-1.7 1.55-1.35 2-1.25 4.35-.8 2.45.2.65.2 1.1.55L6-3.8Q7.65-2.3 9.2.1l.55.85q2.55 4.2 4.2 8.8L15.1 14l-3.65 1.9q-.25-.15-.1-.5Q1.75-9.55-8.1 7.25l-.15.25q-1.9 3.25-3.75 8.05l-.05.05 1.05 1.15-4.3-2.15" fill="#c00" fill-rule="evenodd" transform="translate(20.5 9.35)"/><path d="m-15.3 14.6 4.3 2.15q1.5 1.3 3.7 1.8l-4.35 4.85-4.45-4.15-2.7-2.55-1.2-4.4 4.7 2.3m26.75 1.3L15.1 14l3.3-1.4-1.3 5.1-6 5.35-4.4-4.65q3.05-.75 4.75-2.5" fill="red" fill-rule="evenodd" transform="translate(20.5 9.35)"/><path d="M-11.65 23.4q-2.45-1.65-4.5-3.9l.05-.25 4.45 4.15" fill="#f36" fill-rule="evenodd" transform="translate(20.5 9.35)"/><path d="m-15.3 14.6 4.3 2.15 3.7 1.8m18.75-2.65L15.1 14l3.3-1.4M6.7 18.4l4.75-2.5M-20 12.3l4.7 2.3" fill="none" stroke="#fff" stroke-linecap="round" stroke-linejoin="round" transform="translate(20.5 9.35)"/><path d="m18.4 12.6-1.3 5.1-6 5.35m-27.2-3.8-2.7-2.55-1.2-4.4m3.9 6.95 4.45 4.15" fill="none" stroke="#900" stroke-linecap="round" stroke-linejoin="round" transform="translate(20.5 9.35)"/><path d="M-19.4-6.25q1.95.05 10.05 4l1.25.6L-.4 1.9l18.6-8.25L-.4 14l-19-20.25" fill="red" fill-rule="evenodd" transform="translate(20.5 9.35)"/><path d="M-19.4-6.25q1.95.05 10.05 4l1.25.6" fill="none" stroke="#fff" stroke-linecap="round" stroke-linejoin="round" transform="translate(20.5 9.35)"/><path d="M-8.1-1.65-.4 1.9l18.6-8.25" fill="none" stroke="#fff" stroke-linecap="round" stroke-linejoin="round" transform="translate(20.5 9.35)"/><path d="M18.2-6.35-.4 14l-19-20.25Z" fill="none" stroke="#900" stroke-linecap="round" stroke-linejoin="round" transform="translate(20.5 9.35)"/><path d="M-.45-9.35q2.75 1.5 4.7 4.25Q6.2-2.35 6.2 1.55q0 1.95-.5 3.65l-6.2 4-6.1-4q-.5-1.7-.5-3.65 0-3.9 1.95-6.65 1.95-2.75 4.7-4.25" fill="#c00" fill-rule="evenodd" transform="translate(20.5 9.35)"/><path d="M2.65-2.5q.7.6.7 1.5 0 .75-.5 1.3l-.9.6q.9.2 1.35.75.45.55.45 1.35L3.4 4.2l-.85.85-1 .3-1.2.1H-4.2v-8.6H.75q1.25 0 1.9.65M.5-1.2l-.85-.2h-1.2V.25H-.4L.5 0l.2-.6-.2-.6m-.7 4.8 1-.25.25-.65-.25-.6-1-.25h-1.35V3.6H-.2" fill="#fff" fill-rule="evenodd" transform="translate(20.5 9.35)"/><path d="M-.2 3.6h-1.35V1.85H-.2l1 .25.25.6-.25.65-1 .25m.7-4.8.2.6-.2.6-.9.25h-1.15V-1.4h1.2l.85.2" fill="#c00" fill-rule="evenodd" transform="translate(20.5 9.35)"/></g></defs></svg>

<?xml version="1.0" encoding="UTF-8" standalone="no"?>
<svg xmlns:xlink="http://www.w3.org/1999/xlink" height="92.9px" width="100.7px" xmlns="http://www.w3.org/2000/svg">
  <g transform="matrix(1.0, 0.0, 0.0, 1.0, 38.65, 49.75)">
    <use height="33.25" transform="matrix(1.0, 0.0, 0.0, 1.0, -20.5, -9.35)" width="39.4" xlink:href="#shape0"/>
  </g>
  <defs>
    <g id="shape0" transform="matrix(1.0, 0.0, 0.0, 1.0, 20.5, 9.35)">
      <path d="M-15.3 14.6 L-14.55 10.55 -13.6 7.5 Q-12.7 5.0 -11.0 1.8 L-10.8 1.4 -10.4 0.65 -9.35 -1.1 -8.1 -2.8 -6.55 -4.15 -4.55 -5.4 -0.2 -6.2 2.25 -6.0 2.9 -5.8 4.0 -5.25 6.0 -3.8 Q7.65 -2.3 9.2 0.1 L9.75 0.95 Q12.3 5.15 13.95 9.75 L15.1 14.0 11.45 15.9 Q11.2 15.75 11.35 15.4 1.75 -9.55 -8.1 7.25 L-8.25 7.5 Q-10.15 10.75 -12.0 15.55 L-12.05 15.6 -11.0 16.75 -15.3 14.6" fill="#cc0000" fill-rule="evenodd" stroke="none"/>
      <path d="M-15.3 14.6 L-11.0 16.75 Q-9.5 18.05 -7.3 18.55 L-11.65 23.4 -16.1 19.25 -18.8 16.7 -20.0 12.3 -15.3 14.6 M11.45 15.9 L15.1 14.0 18.4 12.6 17.1 17.7 11.1 23.05 6.7 18.4 Q9.75 17.65 11.45 15.9" fill="#ff0000" fill-rule="evenodd" stroke="none"/>
      <path d="M-11.65 23.4 Q-14.1 21.75 -16.15 19.5 L-16.1 19.25 -11.65 23.4" fill="#ff3366" fill-rule="evenodd" stroke="none"/>
      <path d="M-15.3 14.6 L-11.0 16.75 -7.3 18.55 M11.45 15.9 L15.1 14.0 18.4 12.6 M6.7 18.4 L11.45 15.9 M-20.0 12.3 L-15.3 14.6" fill="none" stroke="#ffffff" stroke-linecap="round" stroke-linejoin="round" stroke-width="1.0"/>
      <path d="M18.4 12.6 L17.1 17.7 11.1 23.05 M-16.1 19.25 L-18.8 16.7 -20.0 12.3 M-16.1 19.25 L-11.65 23.4" fill="none" stroke="#990000" stroke-linecap="round" stroke-linejoin="round" stroke-width="1.0"/>
      <path d="M-19.4 -6.25 Q-17.45 -6.2 -9.35 -2.25 L-8.1 -1.65 -0.4 1.9 18.2 -6.35 -0.4 14.0 -19.4 -6.25" fill="#ff0000" fill-rule="evenodd" stroke="none"/>
      <path d="M-19.4 -6.25 Q-17.45 -6.2 -9.35 -2.25 L-8.1 -1.65" fill="none" stroke="#ffffff" stroke-linecap="round" stroke-linejoin="round" stroke-width="1.0"/>
      <path d="M-8.1 -1.65 L-0.4 1.9 18.2 -6.35" fill="none" stroke="#ffffff" stroke-linecap="round" stroke-linejoin="round" stroke-width="1.0"/>
      <path d="M18.2 -6.35 L-0.4 14.0 -19.4 -6.25 Z" fill="none" stroke="#990000" stroke-linecap="round" stroke-linejoin="round" stroke-width="1.0"/>
      <path d="M-0.45 -9.35 Q2.3 -7.85 4.25 -5.1 6.2 -2.35 6.2 1.55 6.2 3.5 5.7 5.2 L-0.5 9.2 -6.6 5.2 Q-7.1 3.5 -7.1 1.55 -7.1 -2.35 -5.15 -5.1 -3.2 -7.85 -0.45 -9.35" fill="#cc0000" fill-rule="evenodd" stroke="none"/>
      <path d="M2.65 -2.5 Q3.35 -1.9 3.35 -1.0 3.35 -0.25 2.85 0.3 L1.95 0.9 Q2.85 1.1 3.3 1.65 3.75 2.2 3.75 3.0 L3.4 4.2 2.55 5.05 1.55 5.35 0.35 5.45 -4.2 5.45 -4.2 -3.15 0.75 -3.15 Q2.0 -3.15 2.65 -2.5 M0.5 -1.2 L-0.35 -1.4 -1.55 -1.4 -1.55 0.25 -0.4 0.25 0.5 0.0 0.7 -0.6 0.5 -1.2 M-0.2 3.6 L0.8 3.35 1.05 2.7 0.8 2.1 -0.2 1.85 -1.55 1.85 -1.55 3.6 -0.2 3.6" fill="#ffffff" fill-rule="evenodd" stroke="none"/>
      <path d="M-0.2 3.6 L-1.55 3.6 -1.55 1.85 -0.2 1.85 0.8 2.1 1.05 2.7 0.8 3.35 -0.2 3.6 M0.5 -1.2 L0.7 -0.6 0.5 0.0 -0.4 0.25 -1.55 0.25 -1.55 -1.4 -0.35 -1.4 0.5 -1.2" fill="#cc0000" fill-rule="evenodd" stroke="none"/>
    </g>
  </defs>
</svg>
